svg/color/dxc.svg

<?xml version="1.0" encoding="UTF-8" ?>
<!DOCTYPE svg PUBLIC "-//W3C//DTD SVG 1.1//EN" "http://www.w3.org/Graphics/SVG/1.1/DTD/svg11.dtd">
<svg width="250pt" height="250pt" viewBox="0 0 250 250" version="1.1" xmlns="http://www.w3.org/2000/svg">
<g id="#fffffeff">
<path fill="#fffffe" opacity="1.00" d=" M 0.00 0.00 L 118.98 0.00 C 96.84 1.30 75.01 8.16 56.49 20.43 C 32.08 36.38 13.52 61.09 5.23 89.07 C 2.23 98.74 0.85 108.81 0.00 118.87 L 0.00 0.00 Z" />
<path fill="#fffffe" opacity="1.00" d=" M 131.20 0.00 L 250.00 0.00 L 250.00 119.46 C 249.30 109.75 247.98 100.06 245.23 90.71 C 237.40 62.79 219.34 37.94 195.37 21.67 C 176.52 8.65 154.00 1.43 131.20 0.00 Z" />
<path fill="#fffffe" opacity="1.00" d=" M 94.77 55.66 C 104.12 40.13 113.96 24.90 123.33 9.39 C 149.08 47.93 174.48 86.70 200.28 125.20 C 187.67 114.02 175.68 102.15 163.33 90.69 C 153.10 80.98 142.74 71.40 132.59 61.61 C 117.11 73.25 101.82 85.17 86.09 96.47 C 89.09 82.89 91.47 69.15 94.77 55.66 Z" />
<path fill="#fffffe" opacity="1.00" d=" M 154.11 45.78 C 160.28 40.05 166.97 34.90 173.19 29.21 C 189.72 68.76 206.35 108.28 222.77 147.87 C 199.99 113.77 176.96 79.84 154.11 45.78 Z" />
<path fill="#fffffe" opacity="1.00" d=" M 21.23 135.27 C 46.51 100.94 71.63 66.48 96.83 32.08 C 79.58 69.45 62.01 106.67 44.87 144.09 C 36.96 141.22 29.09 138.24 21.23 135.27 Z" />
<path fill="#fffffe" opacity="1.00" d=" M 69.89 103.86 C 76.04 90.29 83.00 77.08 88.73 63.32 C 88.53 67.36 87.46 71.27 86.56 75.19 C 80.77 101.85 74.79 128.47 69.12 155.16 C 86.73 163.04 104.34 170.93 121.97 178.79 C 109.90 182.79 97.84 186.83 85.78 190.87 C 82.32 192.21 78.60 191.18 75.01 191.35 C 59.78 190.60 44.52 190.29 29.30 189.27 C 42.99 160.88 56.30 132.31 69.89 103.86 Z" />
<path fill="#fffffe" opacity="1.00" d=" M 173.37 105.70 C 183.04 115.01 193.11 123.89 202.94 133.03 C 204.77 135.03 205.68 137.65 206.95 140.01 C 214.17 154.20 221.40 168.39 228.72 182.52 C 194.55 185.58 160.28 187.50 126.08 190.40 C 114.70 190.86 103.38 192.38 91.99 192.68 C 121.30 183.56 150.48 173.98 179.75 164.73 C 177.89 145.03 175.65 125.36 173.37 105.70 Z" />
<path fill="#fffffe" opacity="1.00" d=" M 212.91 213.87 C 235.23 192.08 248.52 161.64 250.00 130.53 L 250.00 250.00 L 130.44 250.00 C 161.13 248.55 191.16 235.64 212.91 213.87 Z" />
<path fill="#fffffe" opacity="1.00" d=" M 0.00 130.98 C 0.39 134.56 0.66 138.16 1.13 141.73 C 5.03 171.98 20.65 200.48 43.94 220.15 C 64.84 238.24 91.93 248.62 119.48 250.00 L 0.00 250.00 L 0.00 130.98 Z" />
<path fill="#fffffe" opacity="1.00" d=" M 61.98 201.59 C 102.18 198.18 142.41 195.02 182.63 191.71 C 184.14 200.13 185.75 208.54 186.89 217.02 C 145.29 211.65 103.61 206.75 61.98 201.59 Z" />
</g>
<g id="#1f232eff">
<path fill="#1f232e" opacity="1.00" d=" M 118.98 0.00 L 131.20 0.00 C 154.00 1.43 176.52 8.65 195.37 21.67 C 219.34 37.94 237.40 62.79 245.23 90.71 C 247.98 100.06 249.30 109.75 250.00 119.46 L 250.00 130.53 C 248.52 161.64 235.23 192.08 212.91 213.87 C 191.16 235.64 161.13 248.55 130.44 250.00 L 119.48 250.00 C 91.93 248.62 64.84 238.24 43.94 220.15 C 20.65 200.48 5.03 171.98 1.13 141.73 C 0.66 138.16 0.39 134.56 0.00 130.98 L 0.00 118.87 C 0.85 108.81 2.23 98.74 5.23 89.07 C 13.52 61.09 32.08 36.38 56.49 20.43 C 75.01 8.16 96.84 1.30 118.98 0.00 M 94.77 55.66 C 91.47 69.15 89.09 82.89 86.09 96.47 C 101.82 85.17 117.11 73.25 132.59 61.61 C 142.74 71.40 153.10 80.98 163.33 90.69 C 175.68 102.15 187.67 114.02 200.28 125.20 C 174.48 86.70 149.08 47.93 123.33 9.39 C 113.96 24.90 104.12 40.13 94.77 55.66 M 154.11 45.78 C 176.96 79.84 199.99 113.77 222.77 147.87 C 206.35 108.28 189.72 68.76 173.19 29.21 C 166.97 34.90 160.28 40.05 154.11 45.78 M 21.23 135.27 C 29.09 138.24 36.96 141.22 44.87 144.09 C 62.01 106.67 79.58 69.45 96.83 32.08 C 71.63 66.48 46.51 100.94 21.23 135.27 M 69.89 103.86 C 56.30 132.31 42.99 160.88 29.30 189.27 C 44.52 190.29 59.78 190.60 75.01 191.35 C 78.60 191.18 82.32 192.21 85.78 190.87 C 97.84 186.83 109.90 182.79 121.97 178.79 C 104.34 170.93 86.73 163.04 69.12 155.16 C 74.79 128.47 80.77 101.85 86.56 75.19 C 87.46 71.27 88.53 67.36 88.73 63.32 C 83.00 77.08 76.04 90.29 69.89 103.86 M 173.37 105.70 C 175.65 125.36 177.89 145.03 179.75 164.73 C 150.48 173.98 121.30 183.56 91.99 192.68 C 103.38 192.38 114.70 190.86 126.08 190.40 C 160.28 187.50 194.55 185.58 228.72 182.52 C 221.40 168.39 214.17 154.20 206.95 140.01 C 205.68 137.65 204.77 135.03 202.94 133.03 C 193.11 123.89 183.04 115.01 173.37 105.70 M 61.98 201.59 C 103.61 206.75 145.29 211.65 186.89 217.02 C 185.75 208.54 184.14 200.13 182.63 191.71 C 142.41 195.02 102.18 198.18 61.98 201.59 Z" />
</g>
</svg>

<?xml version="1.0" encoding="utf-8"?>
<!-- Generator: Adobe Illustrator 26.0.3, SVG Export Plug-In . SVG Version: 6.00 Build 0)  -->
<svg version="1.1" id="Layer_1" xmlns="http://www.w3.org/2000/svg" xmlns:xlink="http://www.w3.org/1999/xlink" x="0px" y="0px"
	 viewBox="0 0 250 250" style="enable-background:new 0 0 250 250;" xml:space="preserve">
<style type="text/css">
	.st0{fill:#FFFFFE;}
	.st1{fill:#1F232E;}
</style>
<g id="_x23_fffffeff">
	<path class="st0" d="M94.8,55.7c9.4-15.5,19.2-30.8,28.6-46.3c25.8,38.5,51.1,77.3,76.9,115.8c-12.6-11.2-24.6-23-36.9-34.5
		c-10.2-9.7-20.6-19.3-30.7-29.1c-15.5,11.6-30.8,23.6-46.5,34.9C89.1,82.9,91.5,69.2,94.8,55.7z"/>
	<path class="st0" d="M154.1,45.8c6.2-5.7,12.9-10.9,19.1-16.6c16.5,39.6,33.2,79.1,49.6,118.7C200,113.8,177,79.8,154.1,45.8z"/>
	<path class="st0" d="M21.2,135.3c25.3-34.3,50.4-68.8,75.6-103.2c-17.2,37.4-34.8,74.6-52,112C37,141.2,29.1,138.2,21.2,135.3z"/>
	<path class="st0" d="M69.9,103.9C76,90.3,83,77.1,88.7,63.3c-0.2,4-1.3,7.9-2.2,11.9c-5.8,26.7-11.8,53.3-17.4,80
		c17.6,7.9,35.2,15.8,52.8,23.6c-12.1,4-24.1,8-36.2,12.1c-3.5,1.3-7.2,0.3-10.8,0.5c-15.2-0.8-30.5-1.1-45.7-2.1
		C43,160.9,56.3,132.3,69.9,103.9z"/>
	<path class="st0" d="M173.4,105.7c9.7,9.3,19.7,18.2,29.6,27.3c1.8,2,2.7,4.6,4,7c7.2,14.2,14.4,28.4,21.8,42.5
		c-34.2,3.1-68.4,5-102.6,7.9c-11.4,0.5-22.7,2-34.1,2.3c29.3-9.1,58.5-18.7,87.8-27.9C177.9,145,175.6,125.4,173.4,105.7z"/>
	<path class="st0" d="M62,201.6c40.2-3.4,80.4-6.6,120.7-9.9c1.5,8.4,3.1,16.8,4.3,25.3C145.3,211.6,103.6,206.8,62,201.6z"/>
</g>
<g id="_x23_1f232eff">
	<path class="st1" d="M119,0h12.2c22.8,1.4,45.3,8.6,64.2,21.7c24,16.3,42,41.1,49.9,69c2.8,9.3,4.1,19,4.8,28.8v11.1
		c-1.5,31.1-14.8,61.6-37.1,83.3c-21.8,21.8-51.8,34.7-82.5,36.1h-11c-27.6-1.4-54.6-11.8-75.5-29.9C20.6,200.5,5,172,1.1,141.7
		c-0.5-3.6-0.7-7.2-1.1-10.8v-12.1c0.9-10.1,2.2-20.1,5.2-29.8c8.3-28,26.9-52.7,51.3-68.6C75,8.2,96.8,1.3,119,0 M94.8,55.7
		c-3.3,13.5-5.7,27.2-8.7,40.8c15.7-11.3,31-23.2,46.5-34.9c10.2,9.8,20.5,19.4,30.7,29.1c12.3,11.5,24.3,23.3,36.9,34.5
		c-25.8-38.5-51.2-77.3-76.9-115.8C114,24.9,104.1,40.1,94.8,55.7 M154.1,45.8c22.9,34.1,45.9,68,68.7,102.1
		c-16.4-39.6-33.1-79.1-49.6-118.7C167,34.9,160.3,40,154.1,45.8 M21.2,135.3c7.9,3,15.7,5.9,23.6,8.8c17.1-37.4,34.7-74.6,52-112
		C71.6,66.5,46.5,100.9,21.2,135.3 M69.9,103.9c-13.6,28.4-26.9,57-40.6,85.4c15.2,1,30.5,1.3,45.7,2.1c3.6-0.2,7.3,0.9,10.8-0.5
		c12.1-4,24.1-8.1,36.2-12.1c-17.6-7.9-35.2-15.8-52.8-23.6c5.7-26.7,11.6-53.3,17.4-80c0.9-3.9,2-7.8,2.2-11.9
		C83,77.1,76,90.3,69.9,103.9 M173.4,105.7c2.3,19.7,4.5,39.3,6.4,59c-29.3,9.2-58.4,18.8-87.8,27.9c11.4-0.3,22.7-1.8,34.1-2.3
		c34.2-2.9,68.5-4.8,102.6-7.9c-7.3-14.1-14.6-28.3-21.8-42.5c-1.3-2.4-2.2-5-4-7C193.1,123.9,183,115,173.4,105.7 M62,201.6
		c41.6,5.2,83.3,10.1,124.9,15.4c-1.1-8.5-2.8-16.9-4.3-25.3C142.4,195,102.2,198.2,62,201.6z"/>
</g>
</svg>
